X:1
T: Lady MacKintosh
C:
R:Reel
Q: 232
K:D
M:4/4
L:1/8
|:f|d1/2d1/2d dA Bd ef|d1/2d1/2d gd B2 Bf|d1/2d1/2d dA Bd ef|fe dB A2 Af|
d1/2d1/2d dA Bd ef|d1/2d1/2d gd B2 Bf|d1/2d1/2d dA Bd ef|fe dB A2 Ag|
fg af ge eg|fd gd B2 Bg|fg af ge eg|fe dB A2 Ag|
fg af ge eg|fg ad B2 Bg|fg af ge ag|fe dB A3:|
